;FLAVOR:Marlin
;TIME:7749
;Filament used: 4.39561m
;Layer height: 0.15
;MINX:74.709
;MINY:54.715
;MINZ:0.2
;MAXX:175.294
;MAXY:155.279
;MAXZ:1.85
;TARGET_MACHINE.NAME:Prusa i3 Mk3/Mk3s
;Generated with Cura_SteamEngine 5.6.0
M82 ;absolute extrusion mode
G21 ; set units to millimeters
G90 ; use absolute positioning
M82 ; absolute extrusion mode
M104 S200 ; set extruder temp
M140 S60 ; set bed temp
M190 S60 ; wait for bed temp
M109 S200 ; wait for extruder temp
G28 W ; home all without mesh bed level
G80 ; mesh bed leveling
G92 E0.0 ; reset extruder distance position
G1 Y-3.0 F1000.0 ; go outside print area
G1 X60.0 E9.0 F1000.0 ; intro line
G1 X100.0 E21.5 F1000.0 ; intro line
G92 E0.0 ; reset extruder distance position
G92 E0
G92 E0
G1 F2100 E-0.8
;LAYER_COUNT:12
;LAYER:0
M107
G0 F3600 X87.166 Y71.869 Z0.2
;TYPE:SKIRT
G1 F2100 E0
G1 F1800 X87.511 Y71.487 E0.01712
G1 X90.272 Y68.652 E0.14874
G1 X90.87 Y68.062 E0.17668
G1 X91.46 Y67.537 E0.20295
G1 X92.81 Y66.371 E0.26228
G1 X93.543 Y65.758 E0.29406
G1 X94.487 Y65.022 E0.33387
G1 X95.835 Y64.07 E0.38876
G1 X98.389 Y62.352 E0.49114
G1 X99.039 Y61.929 E0.51693
G1 X99.722 Y61.541 E0.54306
G1 X102.862 Y59.869 E0.66138
G1 X103.848 Y59.37 E0.69813
G1 X107.663 Y57.815 E0.83516
G1 X108.368 Y57.54 E0.86033
G1 X108.995 Y57.334 E0.88228
G1 X112.655 Y56.268 E1.00907
G1 X113.634 Y56.006 E1.04277
G1 X117.754 Y55.253 E1.18208
G1 X118.423 Y55.141 E1.20464
G1 X119.071 Y55.069 E1.22632
G1 X122.85 Y54.776 E1.35239
G1 X123.813 Y54.715 E1.38448
G1 X128.09 Y54.823 E1.52678
G1 X129.073 Y54.869 E1.55951
G1 X133.896 Y55.494 E1.72127
G1 X135.074 Y55.758 E1.76142
G1 X138.263 Y56.511 E1.8704
G1 X138.962 Y56.688 E1.89439
G1 X139.467 Y56.842 E1.91195
G1 X143.144 Y58.119 E2.04141
G1 X143.837 Y58.37 E2.06592
G1 X144.34 Y58.583 E2.08409
G1 X147.911 Y60.254 E2.21522
G1 X148.489 Y60.536 E2.23661
G1 X149.231 Y60.928 E2.26453
G1 X150.066 Y61.413 E2.29664
G1 X152.978 Y63.208 E2.41042
G1 X153.945 Y63.908 E2.45012
G1 X156.548 Y65.861 E2.55836
G1 X157.123 Y66.305 E2.58252
G1 X157.545 Y66.667 E2.60101
G1 X160.425 Y69.332 E2.73152
G1 X161.15 Y70.03 E2.76499
G1 X163.918 Y73.179 E2.90444
G1 X164.554 Y73.932 E2.93722
G1 X166.983 Y77.348 E3.07664
G1 X167.537 Y78.159 E3.1093
G1 X169.598 Y81.801 E3.24849
G1 X169.928 Y82.402 E3.27129
G1 X170.16 Y82.88 E3.28896
G1 X171.741 Y86.495 E3.42019
G1 X172.125 Y87.424 E3.45363
G1 X173.383 Y91.36 E3.59106
G1 X173.687 Y92.382 E3.62653
G1 X174.543 Y96.477 E3.76567
G1 X174.723 Y97.431 E3.79796
G1 X175.151 Y101.546 E3.93557
G1 X175.241 Y102.686 E3.9736
G1 X175.284 Y104.229 E4.02494
G1 X175.294 Y105.072 E4.05298
G1 X175.255 Y106.845 E4.11197
G1 X175.219 Y107.689 E4.14006
G1 X175.172 Y108.251 E4.15882
G1 X174.795 Y111.883 E4.28027
G1 X174.664 Y112.943 E4.31579
G1 X173.814 Y117.014 E4.45412
G1 X173.592 Y117.979 E4.48705
G1 X172.325 Y121.955 E4.62584
G1 X172.022 Y122.836 E4.65683
G1 X171.799 Y123.375 E4.67623
G1 X170.338 Y126.716 E4.79751
G1 X169.945 Y127.564 E4.8286
G1 X169.685 Y128.048 E4.84687
G1 X167.843 Y131.299 E4.97115
G1 X167.383 Y132.073 E5.0011
G1 X167.096 Y132.496 E5.0181
G1 X164.919 Y135.555 E5.14298
G1 X164.335 Y136.346 E5.17568
G1 X161.563 Y139.502 E5.31539
G1 X160.888 Y140.239 E5.34863
G1 X157.844 Y143.058 E5.48662
G1 X157.346 Y143.507 E5.50892
G1 X156.453 Y144.238 E5.54731
G1 X153.698 Y146.281 E5.66138
G1 X153.041 Y146.747 E5.68817
G1 X152.293 Y147.222 E5.71765
G1 X150.181 Y148.517 E5.80004
G1 X149.103 Y149.145 E5.84154
G1 X148.625 Y149.395 E5.85948
G1 X147.743 Y149.825 E5.89212
G1 X144.678 Y151.26 E6.00468
G1 X144.051 Y151.542 E6.02755
G1 X143.551 Y151.738 E6.04541
G1 X139.835 Y153.032 E6.17628
G1 X139.168 Y153.253 E6.19965
G1 X138.656 Y153.395 E6.21732
G1 X134.83 Y154.3 E6.34809
G1 X133.795 Y154.521 E6.38329
G1 X129.695 Y155.051 E6.52079
G1 X128.703 Y155.16 E6.55398
G1 X124.495 Y155.27 E6.69399
G1 X123.59 Y155.279 E6.72409
G1 X119.414 Y154.959 E6.86339
G1 X118.433 Y154.861 E6.89618
G1 X117.914 Y154.777 E6.91367
G1 X114.254 Y154.108 E7.03742
G1 X113.262 Y153.908 E7.07108
G1 X109.274 Y152.747 E7.20922
G1 X108.307 Y152.445 E7.24292
G1 X104.462 Y150.883 E7.38095
G1 X103.523 Y150.479 E7.41495
G1 X99.849 Y148.526 E7.55334
G1 X98.961 Y148.031 E7.58716
G1 X95.501 Y145.705 E7.72582
G1 X94.888 Y145.279 E7.75065
G1 X94.331 Y144.842 E7.7742
G1 X91.446 Y142.435 E7.89917
G1 X90.924 Y141.986 E7.92207
G1 X90.428 Y141.509 E7.94495
G1 X87.796 Y138.808 E8.07039
G1 X87.1 Y138.072 E8.10408
G1 X85.907 Y136.637 E8.16615
G1 X85.303 Y135.861 E8.19886
G1 X84.443 Y134.728 E8.24617
G1 X84.048 Y134.193 E8.26828
G1 X83.53 Y133.412 E8.29945
G1 X81.676 Y130.497 E8.41436
G1 X81.116 Y129.573 E8.45029
G1 X79.287 Y125.913 E8.58638
G1 X78.964 Y125.244 E8.61109
G1 X78.657 Y124.493 E8.63807
G1 X77.369 Y121.076 E8.75953
G1 X77.036 Y120.14 E8.79257
G1 X75.978 Y116.131 E8.93047
G1 X75.852 Y115.611 E8.94827
G1 X75.54 Y114.122 E8.99887
G1 X75.382 Y113.209 E9.02969
G1 X75.063 Y110.901 E9.10718
G1 X74.964 Y110.054 E9.13555
G1 X74.917 Y109.344 E9.15921
G1 X74.736 Y105.843 E9.27581
G1 X74.709 Y105.114 E9.30007
G1 X74.716 Y104.582 E9.31777
G1 X74.919 Y100.622 E9.44965
G1 X74.967 Y99.911 E9.47336
G1 X75.064 Y99.084 E9.50105
G1 X75.306 Y97.317 E9.56037
G1 X75.434 Y96.472 E9.58879
G1 X75.72 Y94.972 E9.63958
G1 X76.073 Y93.508 E9.68967
G1 X76.856 Y90.535 E9.79193
G1 X77.057 Y89.812 E9.81689
G1 X77.311 Y89.076 E9.84278
G1 X78.601 Y85.655 E9.96439
G1 X78.874 Y84.962 E9.98916
G1 X79.096 Y84.471 E10.00708
G1 X80.84 Y80.979 E10.1369
G1 X81.316 Y80.07 E10.17103
G1 X83.535 Y76.581 E10.30856
G1 X84.112 Y75.711 E10.34328
G1 X86.679 Y72.465 E10.48092
G1 X87.166 Y71.869 E10.50652
G1 F2100 E9.70652
;MESH:4spiral2mmheight.STL
G0 F3600 X86.104 Y77.276
G0 X86.955 Y77.948
G0 X83.103 Y105.197
G0 X82.741 Y106.193
G0 X81.287 Y107.55
G0 X81.3 Y107.25
;TYPE:WALL-INNER
G1 F2100 E10.50652
G1 F1800 X80.634 Y107.224 E10.52869
G1 X80.433 Y107.181 E10.53553
G1 X79.821 Y106.934 E10.55748
G1 X79.322 Y106.496 E10.57956
G1 X79.192 Y106.336 E10.58642
G1 F1884.8 X78.889 Y105.77 E10.60681
G1 F2039.7 X78.784 Y104.978 E10.63026
G1 X78.89 Y104.227 E10.65252
G1 F1884.8 X79.192 Y103.664 E10.67281
G1 F1800 X79.321 Y103.504 E10.67965
G1 X79.82 Y103.067 E10.70171
G1 X80.516 Y102.787 E10.72666
G1 X80.963 Y102.741 E10.74161
G1 X81.573 Y102.816 E10.76205
G1 X81.767 Y102.875 E10.7688
G1 X82.337 Y103.164 E10.79005
G1 X82.671 Y103.464 E10.80498
G1 X83.02 Y103.977 E10.82562
G1 X83.105 Y104.165 E10.83248
G1 X83.264 Y104.778 E10.85355
G1 X83.262 Y105.207 E10.86781
G1 X83.083 Y105.902 E10.89168
G1 X82.874 Y106.287 E10.90625
G1 X82.43 Y106.749 E10.92757
G1 X82.018 Y107.03 E10.94415
G1 X81.3 Y107.25 E10.96913
G0 F3600 X81.25 Y106.847
;TYPE:WALL-OUTER
G1 F1800 X80.614 Y106.823 E10.9903
G1 X80.034 Y106.588 E11.01111
G1 X79.557 Y106.17 E11.03221
G1 X79.252 Y105.616 E11.05324
G1 X79.15 Y104.989 E11.07437
G1 X79.252 Y104.383 E11.09481
G1 X79.558 Y103.828 E11.11589
G1 X80.03 Y103.414 E11.13677
G1 X80.638 Y103.177 E11.15847
G1 X80.966 Y103.142 E11.16945
G1 X81.557 Y103.217 E11.18926
G1 X82.125 Y103.511 E11.21053
G1 X82.355 Y103.715 E11.22076
G1 X82.709 Y104.23 E11.24154
G1 X82.864 Y104.844 E11.26261
G1 X82.864 Y105.164 E11.27325
G1 X82.697 Y105.785 E11.29464
G1 X82.53 Y106.068 E11.30557
G1 X82.103 Y106.504 E11.32586
G1 X81.815 Y106.674 E11.33699
G1 X81.25 Y106.847 E11.35664
G0 F3600 X81.05 Y106.84
G0 X81.02 Y107.539
G0 X94.06 Y134.941
G0 X94.676 Y135.511
G0 X95.106 Y134.959
G1 F1800 X95.056 Y134.872 E11.35998
G1 X95.058 Y134.734 E11.36457
G1 X95.933 Y133.714 E11.40927
G1 X96.037 Y133.67 E11.41302
G1 X96.182 Y133.712 E11.41804
G1 X99.136 Y136.004 E11.5424
G1 X102.248 Y137.989 E11.66517
G1 X105.528 Y139.676 E11.78785
G1 X108.941 Y141.048 E11.91019
G1 X112.444 Y142.089 E12.03174
G1 X116.015 Y142.796 E12.15281
G1 X119.645 Y143.167 E12.27418
G1 X123.247 Y143.191 E12.39398
G1 X126.841 Y142.874 E12.51398
G1 X130.363 Y142.224 E12.6331
G1 X133.788 Y141.244 E12.75159
G1 X137.096 Y139.944 E12.86981
G1 X140.245 Y138.344 E12.98729
G1 X143.228 Y136.443 E13.10494
G1 X145.976 Y134.29 E13.22105
G1 X148.507 Y131.875 E13.3374
G1 X150.768 Y129.249 E13.45266
G1 X152.761 Y126.416 E13.56786
G1 X154.453 Y123.418 E13.68236
G1 X155.663 Y120.716 E13.78083
G1 X156.765 Y117.477 E13.89462
G1 X157.529 Y114.177 E14.00729
G1 X157.958 Y110.822 E14.11978
G1 X158.045 Y107.466 E14.23144
G1 X157.793 Y104.137 E14.34248
G1 X157.207 Y100.867 E14.45297
G1 X156.289 Y97.688 E14.56303
G1 X155.056 Y94.635 E14.67254
G1 X153.523 Y91.742 E14.78144
G1 X151.711 Y89.049 E14.88939
G1 X149.635 Y86.566 E14.99704
G1 X147.332 Y84.337 E15.10364
G1 X144.813 Y82.369 E15.20996
G1 X142.117 Y80.694 E15.31553
G1 X139.293 Y79.333 E15.41979
G1 X136.303 Y78.269 E15.52535
G1 X133.271 Y77.551 E15.62898
G1 X130.184 Y77.168 E15.73244
G1 X127.114 Y77.128 E15.83456
G1 X124.068 Y77.425 E15.93635
G1 X121.11 Y78.051 E16.03691
G1 X118.243 Y79.002 E16.13738
G1 X115.535 Y80.254 E16.23661
G1 X113.21 Y81.65 E16.32681
G1 X110.86 Y83.439 E16.42504
G1 X108.76 Y85.458 E16.52193
G1 X106.899 Y87.711 E16.61913
G1 X105.34 Y90.129 E16.71482
G1 X104.08 Y92.697 E16.80995
G1 X103.144 Y95.368 E16.90409
G1 X102.536 Y98.119 E16.9978
G1 X102.265 Y100.895 E17.09056
G1 X102.262 Y102.461 E17.14265
G1 X102.517 Y105.193 E17.23391
G1 X103.104 Y107.863 E17.32484
G1 X104.001 Y110.395 E17.41418
G1 X105.197 Y112.776 E17.5028
G1 X106.674 Y114.973 E17.59085
G1 X108.395 Y116.938 E17.67773
G1 X110.345 Y118.656 E17.76417
G1 X112.268 Y119.967 E17.84158
G1 X114.521 Y121.117 E17.92571
G1 X116.875 Y121.95 E18.00876
G1 X119.297 Y122.454 E18.09104
G1 X121.733 Y122.625 E18.17227
G1 X124.137 Y122.459 E18.25241
G1 X126.46 Y121.973 E18.33135
G1 X128.467 Y121.258 E18.40221
G1 X130.521 Y120.194 E18.47915
G1 X132.376 Y118.86 E18.55514
G1 X133.971 Y117.312 E18.62907
G1 X135.314 Y115.555 E18.70263
G1 X136.352 Y113.656 E18.77461
G1 X137.068 Y111.674 E18.8447
G1 X137.328 Y110.55 E18.88307
G1 X137.54 Y108.495 E18.95178
G1 X137.423 Y106.492 E19.01852
G1 X136.994 Y104.585 E19.08353
G1 X136.272 Y102.817 E19.14705
G1 X135.335 Y101.304 E19.20624
G1 X134.205 Y100.014 E19.26328
G1 X132.95 Y98.991 E19.31713
G1 X131.604 Y98.222 E19.36869
G1 X130.242 Y97.722 E19.41694
G1 X128.887 Y97.468 E19.4628
G1 X127.597 Y97.446 E19.50571
G1 X126.411 Y97.615 E19.54555
G1 X126.311 Y97.566 E19.54926
G1 X126.247 Y97.479 E19.55285
G1 X125.95 Y96.174 E19.59736
G1 X126.062 Y96.007 E19.60405
G1 X127.358 Y95.812 E19.64764
G1 X128.916 Y95.817 E19.69946
G1 X130.535 Y96.096 E19.7541
G1 X132.175 Y96.674 E19.81194
G1 X133.744 Y97.538 E19.87151
G1 X135.217 Y98.706 E19.93404
G1 X135.954 Y99.46 E19.96911
G1 X137.171 Y101.074 E20.03634
G1 X138.13 Y102.902 E20.105
G1 X138.794 Y104.91 E20.17534
G1 X139.139 Y107.014 E20.24625
G1 X139.153 Y109.239 E20.32026
G1 X138.829 Y111.426 E20.39379
G1 X138.144 Y113.642 E20.47094
G1 X137.159 Y115.693 E20.54661
G1 X135.832 Y117.654 E20.62537
G1 X134.234 Y119.409 E20.70431
G1 X132.384 Y120.934 E20.78405
G1 X130.288 Y122.214 E20.86574
G1 X128.024 Y123.2 E20.94787
G1 X125.901 Y123.812 E21.02136
G1 X123.403 Y124.2 E21.10544
G1 X120.823 Y124.249 E21.19126
G1 X118.255 Y123.955 E21.27723
G1 X115.715 Y123.321 E21.36431
G1 X113.246 Y122.349 E21.45256
G1 X110.922 Y121.071 E21.54077
G1 X108.801 Y119.534 E21.62789
G1 X106.817 Y117.677 E21.71828
G1 X105.058 Y115.564 E21.80972
G1 X103.555 Y113.218 E21.90239
G1 X102.337 Y110.681 E21.99599
G1 X101.434 Y108.008 E22.08983
G1 X100.855 Y105.215 E22.1847
G1 X100.612 Y102.362 E22.27994
G1 X100.619 Y100.874 E22.32943
G1 X100.891 Y97.98 E22.42611
G1 X101.505 Y95.12 E22.5234
G1 X102.454 Y92.324 E22.6216
G1 X103.741 Y89.614 E22.72139
G1 X105.333 Y87.067 E22.82129
G1 X107.209 Y84.713 E22.9214
G1 X109.371 Y82.553 E23.02305
G1 X111.758 Y80.652 E23.12454
G1 X114.389 Y79.003 E23.22782
G1 X117.173 Y77.659 E23.33064
G1 X120.12 Y76.619 E23.43458
G1 X123.197 Y75.901 E23.53967
G1 X126.322 Y75.522 E23.64437
G1 X129.518 Y75.483 E23.75068
G1 X132.708 Y75.788 E23.85726
G1 X135.865 Y76.437 E23.96446
G1 X138.941 Y77.419 E24.07186
G1 X141.595 Y78.569 E24.16806
G1 X144.442 Y80.151 E24.27639
G1 X147.159 Y82.06 E24.38683
G1 X149.655 Y84.235 E24.49694
G1 X151.922 Y86.668 E24.60755
G1 X153.939 Y89.335 E24.71877
G1 X155.691 Y92.228 E24.83126
G1 X157.134 Y95.269 E24.94321
G1 X158.276 Y98.488 E25.05681
G1 X159.088 Y101.808 E25.17049
G1 X159.566 Y105.21 E25.28475
G1 X159.7 Y108.652 E25.39932
G1 X159.492 Y112.118 E25.51481
G1 X158.932 Y115.577 E25.63135
G1 X158.042 Y118.95 E25.74738
G1 X156.812 Y122.245 E25.86436
G1 X155.257 Y125.425 E25.98209
G1 X153.388 Y128.455 E26.1005
G1 X151.245 Y131.282 E26.21849
G1 X148.81 Y133.918 E26.33785
G1 X146.14 Y136.3 E26.45686
G1 X143.224 Y138.442 E26.5772
G1 X140.088 Y140.31 E26.6986
G1 X136.797 Y141.869 E26.81972
G1 X133.371 Y143.109 E26.94091
G1 X129.806 Y144.033 E27.0634
G1 X126.17 Y144.617 E27.18588
G1 X122.473 Y144.86 E27.30911
G1 X118.759 Y144.759 E27.43268
G1 X115.429 Y144.372 E27.54418
G1 X111.762 Y143.618 E27.6687
G1 X108.169 Y142.522 E27.79364
G1 X104.683 Y141.1 E27.91886
G1 X101.342 Y139.367 E28.04404
G1 X98.141 Y137.317 E28.17047
G1 X95.106 Y134.959 E28.2983
G0 F3600 X95.056 Y134.872
G0 X95.057 Y134.772
G0 X94.508 Y134.304
G0 X97.767 Y137.836
G0 X101.011 Y139.914
G0 X102.945 Y140.918
G0 X123.811 Y151.187
G0 X123.795 Y151.886
G1 F1800 X128.614 Y151.762 E28.45863
G1 X133.413 Y151.14 E28.61958
G1 X138.103 Y150.033 E28.77986
G1 X142.673 Y148.443 E28.9408
G1 X147.043 Y146.397 E29.10128
G1 X147.817 Y145.975 E29.1306
G1 X151.184 Y143.913 E29.26192
G1 X154.569 Y141.405 E29.40204
G1 X155.043 Y141.016 E29.42244
G1 X158.592 Y137.732 E29.58326
G1 X161.779 Y134.103 E29.7439
G1 X164.576 Y130.168 E29.90447
G1 X166.956 Y125.965 E30.06512
G1 X168.885 Y121.549 E30.2254
G1 X170.356 Y116.94 E30.38631
G1 X171.342 Y112.222 E30.54663
G1 X171.84 Y107.408 E30.70759
G1 X171.902 Y105.011 E30.78735
G1 X171.84 Y102.584 E30.86809
G1 X171.342 Y97.778 E31.0288
G1 X170.356 Y93.06 E31.18911
G1 X168.885 Y88.451 E31.35002
G1 X166.952 Y84.027 E31.5106
G1 X164.577 Y79.832 E31.67093
G1 X161.779 Y75.897 E31.83153
G1 X158.586 Y72.262 E31.99245
G1 X155.041 Y68.982 E32.15308
G1 X151.179 Y66.083 E32.31369
G1 X147.82 Y64.023 E32.44475
G1 X147.043 Y63.603 E32.47413
G1 X142.673 Y61.557 E32.63462
G1 X138.102 Y59.967 E32.79558
G1 X133.413 Y58.86 E32.95583
G1 X128.614 Y58.238 E33.11678
G1 X123.795 Y58.113 E33.27711
G1 X118.972 Y58.487 E33.43801
G1 X114.233 Y59.35 E33.59822
G1 X109.595 Y60.701 E33.75889
G1 X105.114 Y62.523 E33.91978
G1 X100.852 Y64.793 E34.08039
G1 X96.843 Y67.49 E34.24109
G1 X95.514 Y68.528 E34.29718
G1 X93.139 Y70.58 E34.40157
G1 X89.773 Y74.035 E34.56201
G1 X86.771 Y77.829 E34.72292
G1 X84.18 Y81.903 E34.8835
G1 X82.02 Y86.223 E35.04415
G1 X80.321 Y90.731 E35.20438
G1 X79.099 Y95.376 E35.36413
G1 X78.754 Y97.172 E35.42496
G1 X78.347 Y100.18 E35.52591
G1 X78.098 Y105.004 E35.68657
G1 X78.347 Y109.82 E35.84697
G1 X78.759 Y112.829 E35.94798
G1 X79.094 Y114.625 E36.00875
G1 X80.321 Y119.269 E36.16851
G1 X82.02 Y123.777 E36.32874
G1 X84.18 Y128.097 E36.48938
G1 X86.773 Y132.175 E36.65012
G1 X88.649 Y134.634 E36.75299
G1 X89.766 Y135.959 E36.81063
G1 X93.139 Y139.417 E36.97129
G1 X96.853 Y142.515 E37.13215
G1 X100.852 Y145.207 E37.29249
G1 X105.114 Y147.477 E37.4531
G1 X109.595 Y149.299 E37.61399
G1 X114.23 Y150.65 E37.77456
G1 X118.972 Y151.513 E37.93487
G1 X123.795 Y151.886 E38.09576
G0 F3600 X123.994 Y151.881
G0 X123.95 Y151.247
G0 X125.339 Y151.121
G0 X125.251 Y150.833
G1 F1800 X124.608 Y150.813 E38.11716
G1 X124.023 Y150.578 E38.13813
G1 X123.549 Y150.162 E38.15911
G1 X123.243 Y149.609 E38.18013
G1 X123.136 Y148.99 E38.20102
G1 X123.243 Y148.371 E38.22191
G1 X123.55 Y147.817 E38.24298
G1 X124.02 Y147.404 E38.26379
G1 X124.606 Y147.171 E38.28476
G1 X124.916 Y147.131 E38.29516
G1 X125.546 Y147.207 E38.31627
G1 X126.115 Y147.502 E38.33758
G1 X126.366 Y147.731 E38.34888
G1 X126.699 Y148.22 E38.36856
G1 X126.848 Y148.798 E38.38841
G1 X126.848 Y149.183 E38.40122
G1 X126.687 Y149.775 E38.42162
G1 X126.52 Y150.058 E38.43255
G1 X126.093 Y150.494 E38.45285
G1 X125.805 Y150.664 E38.46397
G1 X125.251 Y150.833 E38.48324
G0 F3600 X125.051 Y150.827
G0 X125.038 Y151.13
G0 X154.323 Y135.508
